icons/plexis/48/jmol-icon.svg

<svg viewBox="0 0 48 48" xmlns="http://www.w3.org/2000/svg" xmlns:xlink="http://www.w3.org/1999/xlink">
  <radialGradient id="a" cx="15.5" cy="17.5" gradientTransform="matrix(1.1666666 0 0 1 17.956084 -19.069785)" gradientUnits="userSpaceOnUse" r="1.5">
    <stop offset="0" stop-color="#b4b4b4" stop-opacity=".824"/>
    <stop offset="1" stop-color="#f0f0f0" stop-opacity=".314"/>
  </radialGradient>
  <linearGradient id="b" gradientTransform="matrix(0 -1 1 0 -.0000015 47.999998)" gradientUnits="userSpaceOnUse" x1="1" x2="47">
    <stop offset="0" stop-color="#cfbcad"/>
    <stop offset="1" stop-color="#d6c6b9"/>
  </linearGradient>
  <radialGradient id="c" cx="15.5" cy="17.5" gradientTransform="matrix(1.1666666 0 0 1 17.706084 -18.21957)" gradientUnits="userSpaceOnUse" r="1.5">
    <stop offset="0" stop-color="#b4b4b4" stop-opacity=".667"/>
    <stop offset="1" stop-color="#f0f0f0" stop-opacity=".157"/>
  </radialGradient>
  <radialGradient id="d" cx="15.5" cy="17.5" gradientTransform="matrix(1.1666666 0 0 1 -4.3333429 4.9999966)" gradientUnits="userSpaceOnUse" r="1.5" xlink:href="#a"/>
  <radialGradient id="e" cx="34.31" cy=".7802141" gradientUnits="userSpaceOnUse" r="5">
    <stop offset="0" stop-color="#6269ba"/>
    <stop offset="1" stop-color="#5159b3"/>
  </radialGradient>
  <radialGradient id="f" cx="20.307" cy="7.78" gradientUnits="userSpaceOnUse" r="5">
    <stop offset="0" stop-color="#5a5a5a"/>
    <stop offset="1" stop-color="#4e4e4e"/>
  </radialGradient>
  <radialGradient id="g" cx="28" cy="31" gradientUnits="userSpaceOnUse" r="5">
    <stop offset="0" stop-color="#e25656"/>
    <stop offset="1" stop-color="#de4242"/>
  </radialGradient>
  <radialGradient id="h" cx="15.5" cy="17.5" gradientTransform="matrix(1.1666666 0 0 1 9.666656 12.999996)" gradientUnits="userSpaceOnUse" r="1.5" xlink:href="#a"/>
  <path d="m47 24c0 22.703-.297 23-23 23-22.703 0-23-.297-23-23 0-22.703.297-23 23-23 22.703 0 23 .297 23 23z" fill="url(#b)"/>
  <g transform="translate(1.0003701)">
    <g transform="matrix(.8660254 -.5 .5 .8660254 -8.03942 16.219786)">
      <g transform="translate(2)">
        <path d="m25.26 10.865l-4.284 7.42-1.768-.117c-.367-1.212-1.181-2.24-2.278-2.876-2.391-1.381-5.449-.561-6.83 1.83-.74 1.282-.874 2.826-.366 4.216-.009-.012-.063-.075-.063-.075l-3.636 4.297.669.641c.858.821 1.932 1.623 2.867 2.163 3.455 1.995 6.515 2.575 9.02 2.148-.133.171-.255.351-.365.538-1.381 2.391-.561 5.449 1.83 6.83 2.391 1.381 5.449.561 6.83-1.83 1.188-2.058.763-4.667-1.015-6.242l2.604-4.511c2.25.747 4.716-.189 5.904-2.241 1.381-2.391.561-5.449-1.83-6.83-.595-.341-1.254-.556-1.936-.631l.711-1.231z" opacity=".1"/>
        <path d="m28.395 17.433l-13.144-.866 2.105 3.01-.008-.014 9.307.865z" fill="#212121"/>
        <circle cx="21.307" cy="8.78" fill="url(#f)" r="5" transform="matrix(.8660254 .5 -.5 .8660254 0 0)"/>
        <circle cx="35.3" cy="1.78" fill="url(#e)" r="5" transform="matrix(.8660254 .5 -.5 .8660254 0 0)"/>
        <path d="m28.982 21.907l-1.802 1.614c.6.344 1.265.559 1.955.634" opacity=".1"/>
      </g>
      <ellipse cx="35.789" cy="-.72" fill="url(#c)" rx="1.75" ry="1.5" transform="matrix(.8660254 .5 -.5 .8660254 0 0)"/>
    </g>
    <g>
      <path d="m20 11v12.17c0 2.389-.32 5.175-5.325 5.175-.735 0-1.681-.113-2.275-.295-.247-.076-.7-.25-.7-.25l-1 5.54.9.22c1.154.282 2.485.44 3.565.44 8.05 0 11.835-4.17 11.835-9v-14z" fill="#eae8fc"/>
      <path d="m19.756 25.41c-.256.961-.788 1.822-1.922 2.357l6.234 3.568c.823-.687 1.462-1.483 1.936-2.352l-6.248-3.574z" opacity=".1"/>
    </g>
    <path d="m17.13 23.678a1.5 1.5 0 0 0-.777 2.813l11.906 6.813a1.5 1.5 0 1 0 1.488-2.605l-11.906-6.813a1.5 1.5 0 0 0-.711-.207" fill="#2a2a2a" fill-rule="evenodd"/>
    <ellipse cx="13.75" cy="22.5" fill="url(#d)" rx="1.75" ry="1.5"/>
    <path d="m28.477 19.1c-.852 0-1.477.55-1.477 1.55v11.35c-.029 2.028 3.03 2.028 3 0v-11.35c0-1.065-.671-1.55-1.523-1.55" fill="#262626" fill-rule="evenodd"/>
    <path d="m27.998 12.03a5 5 0 0 0-.998.314v9.168 8.408c.665-1.216 1-2.574 1-3.992v-13.9a5 5 0 0 0-.002 0z" opacity=".1"/>
    <circle cx="29" cy="32" fill="url(#g)" r="5"/>
    <ellipse cx="27.75" cy="30.5" fill="url(#h)" rx="1.75" ry="1.5"/>
  </g>
</svg>

<svg xmlns="http://www.w3.org/2000/svg" xmlns:xlink="http://www.w3.org/1999/xlink" viewBox="0 0 48 48">
 <defs>
  <radialGradient id="radialGradient4282" gradientUnits="userSpaceOnUse" cx="15.5" cy="17.5" r="1.5" gradientTransform="matrix(1.1666666,0,0,1,17.956084,-19.069785)">
   <stop style="stop-color:#b4b4b4;stop-opacity:0.667"/>
   <stop offset="1" style="stop-color:#f0f0f0;stop-opacity:0.157"/>
  </radialGradient>
  <radialGradient gradientTransform="matrix(1.1666666,0,0,1,17.956084,-19.069785)" r="1.5" cy="17.5" cx="15.5" gradientUnits="userSpaceOnUse" id="radialGradient4172">
   <stop style="stop-color:#b4b4b4;stop-opacity:0.824"/>
   <stop offset="1" style="stop-color:#f0f0f0;stop-opacity:0.314"/>
  </radialGradient>
  <linearGradient id="linearGradient3764" x1="1" x2="47" gradientUnits="userSpaceOnUse" gradientTransform="matrix(0,-1,1,0,-1.5e-6,47.999998)">
   <stop style="stop-color:#cfbcad;stop-opacity:1"/>
   <stop offset="1" style="stop-color:#d6c6b9;stop-opacity:1"/>
  </linearGradient>
  <radialGradient xlink:href="#radialGradient4282" id="radialGradient4170" gradientUnits="userSpaceOnUse" gradientTransform="matrix(1.1666666,0,0,1,17.706084,-18.21957)" cx="15.5" cy="17.5" r="1.5"/>
  <radialGradient xlink:href="#radialGradient4172" id="radialGradient4211" gradientUnits="userSpaceOnUse" gradientTransform="matrix(1.1666666,0,0,1,-4.3333429,4.9999966)" cx="15.5" cy="17.5" r="1.5"/>
  <radialGradient id="radialGradient4245" cx="34.31" cy="-0.22" r="5" gradientUnits="userSpaceOnUse" gradientTransform="translate(0,1.0002141)">
   <stop style="stop-color:#6269ba;stop-opacity:1"/>
   <stop offset="1" style="stop-color:#5159b3;stop-opacity:1"/>
  </radialGradient>
  <radialGradient id="radialGradient4253" cx="20.307" cy="7.78" r="5" gradientUnits="userSpaceOnUse">
   <stop style="stop-color:#5a5a5a;stop-opacity:1"/>
   <stop offset="1" style="stop-color:#4e4e4e;stop-opacity:1"/>
  </radialGradient>
  <radialGradient id="radialGradient4237-3-2" cx="28" cy="31" r="5" gradientUnits="userSpaceOnUse">
   <stop style="stop-color:#e25656;stop-opacity:1"/>
   <stop offset="1" style="stop-color:#de4242;stop-opacity:1"/>
  </radialGradient>
  <radialGradient xlink:href="#radialGradient4172" id="radialGradient4180-9-5" gradientUnits="userSpaceOnUse" gradientTransform="matrix(1.1666666,0,0,1,9.666656,12.999996)" cx="15.5" cy="17.5" r="1.5"/>
 </defs>
 <g>
  
  
  
 </g>
 <g>
  <path d="m 47,24 C 47,46.703 46.703,47 24,47 1.297,47 1,46.703 1,24 1,1.297 1.297,1 24,1 46.703,1 47,1.297 47,24 z" style="fill:url(#linearGradient3764);fill-opacity:1"/>
 </g>
 <g>
  
 </g>
 <g transform="translate(1.0003701,0)">
  <g>
   <g>
    <g transform="matrix(0.8660254,-0.5,0.5,0.8660254,-8.03942,16.219786)">
     <g transform="translate(2,0)">
      <path d="m 25.26,10.865 -4.284,7.42 -1.768,-0.117 C 18.841,16.956 18.027,15.928 16.93,15.292 14.539,13.911 11.481,14.731 10.1,17.122 9.36,18.404 9.226,19.948 9.734,21.338 9.725,21.326 9.671,21.263 9.671,21.263 l -3.636,4.297 0.669,0.641 c 0.858,0.821 1.932,1.623 2.867,2.163 3.455,1.995 6.515,2.575 9.02,2.148 -0.133,0.171 -0.255,0.351 -0.365,0.538 -1.381,2.391 -0.561,5.449 1.83,6.83 2.391,1.381 5.449,0.561 6.83,-1.83 1.188,-2.058 0.763,-4.667 -1.015,-6.242 l 2.604,-4.511 c 2.25,0.747 4.716,-0.189 5.904,-2.241 1.381,-2.391 0.561,-5.449 -1.83,-6.83 -0.595,-0.341 -1.254,-0.556 -1.936,-0.631 l 0.711,-1.231 z" style="fill:#000;opacity:0.1;fill-opacity:1;stroke:none;fill-rule:nonzero"/>
      <path d="m 28.395 17.433 -13.144 -0.866 2.105 3.01 -0.008 -0.014 9.307 0.865 z" style="fill:#212121;opacity:1;fill-opacity:1;stroke:none;fill-rule:nonzero"/>
      <circle transform="matrix(0.8660254,0.5,-0.5,0.8660254,0,0)" cx="21.307" cy="8.78" r="5" style="fill:url(#radialGradient4253);opacity:1;fill-opacity:1;stroke:none;fill-rule:nonzero"/>
      <circle transform="matrix(0.8660254,0.5,-0.5,0.8660254,0,0)" r="5" cy="1.78" cx="35.3" style="fill:url(#radialGradient4245);opacity:1;fill-opacity:1;stroke:none;fill-rule:nonzero"/>
      <path d="m 28.982 21.907 -1.802 1.614 c 0.6 0.344 1.265 0.559 1.955 0.634" style="fill:#000;opacity:0.1;fill-opacity:1;stroke:none;fill-rule:nonzero"/>
     </g>
     <ellipse transform="matrix(0.8660254,0.5,-0.5,0.8660254,0,0)" cx="35.789" cy="-0.72" rx="1.75" ry="1.5" style="fill:url(#radialGradient4170);opacity:1;fill-opacity:1;stroke:none;fill-rule:nonzero"/>
    </g>
    <g style="fill:#000;fill-opacity:1;stroke:none">
     <path d="m 20,11 0,12.17 c 0,2.389 -0.32,5.175 -5.325,5.175 -0.735,0 -1.681,-0.113 -2.275,-0.295 -0.247,-0.076 -0.7,-0.25 -0.7,-0.25 l -1,5.54 0.9,0.22 C 12.754,33.842 14.085,34 15.165,34 23.215,34 27,29.83 27,25 l 0,-14 z" style="fill:#eae8fc"/>
     <path d="m 19.756 25.41 c -0.256 0.961 -0.788 1.822 -1.922 2.357 l 6.234 3.568 c 0.823 -0.687 1.462 -1.483 1.936 -2.352 l -6.248 -3.574 z" style="opacity:0.1"/>
    </g>
    <path d="m 17.13 23.678 a 1.5 1.5 0 0 0 -0.777 2.813 l 11.906 6.813 a 1.5 1.5 0 1 0 1.488 -2.605 L 17.841 23.886 A 1.5 1.5 0 0 0 17.13 23.679" mix-blend-mode="normal" isolation="auto" white-space="normal" solid-color="#000000" solid-opacity="1" style="visibility:visible;shape-rendering:auto;color-interpolation-filters:linearRGB;fill:#2a2a2a;opacity:1;image-rendering:auto;fill-opacity:1;stroke:none;display:inline;color:#000;fill-rule:evenodd;color-rendering:auto;color-interpolation:sRGB"/>
   </g>
   <ellipse cx="13.75" cy="22.5" rx="1.75" ry="1.5" style="fill:url(#radialGradient4211);opacity:1;fill-opacity:1;stroke:none;fill-rule:nonzero"/>
  </g>
  <path white-space="normal" isolation="auto" mix-blend-mode="normal" d="M 28.477,19.1 C 27.625,19.1 27,19.65 27,20.65 L 27,32 c -0.029,2.028 3.03,2.028 3,0 L 30,20.65 C 30,19.585 29.329,19.1 28.477,19.1" solid-color="#000000" solid-opacity="1" style="visibility:visible;shape-rendering:auto;color-interpolation-filters:linearRGB;fill:#262626;opacity:1;image-rendering:auto;fill-opacity:1;stroke:none;display:inline;color:#000;fill-rule:evenodd;color-rendering:auto;color-interpolation:sRGB"/>
  <path d="M 27.998 12.03 A 5 5 0 0 0 27 12.344 l 0 9.168 0 8.408 c 0.665 -1.216 1 -2.574 1 -3.992 l 0 -13.9 a 5 5 0 0 0 -0.002 0 z" style="fill:#000;opacity:0.1;fill-opacity:1;stroke:none;fill-rule:nonzero"/>
  <circle cx="29" cy="32" r="5" style="fill:url(#radialGradient4237-3-2);opacity:1;fill-opacity:1;stroke:none;fill-rule:nonzero"/>
  <ellipse ry="1.5" rx="1.75" cy="30.5" cx="27.75" style="fill:url(#radialGradient4180-9-5);opacity:1;fill-opacity:1;stroke:none;fill-rule:nonzero"/>
 </g>
</svg>
